X: 90
M:2/4
L:1/16
K:F
uc2|cfaf gcde|fegf afga|bgaf gdbg|fedc cBAB|
cfaf gcde|fcaf gcde|{g}fefd cBAG|F2F2F2:|
|:vcB|Acfe dcBA|BGgf edcB|Acag fedc|cBAB G2vcuB|


